X:11643
T:NANTES ERDRE OH
R:HANTER DRO
C:Yves BELOTTEAU
Z: Yves BELOTTEAU
M:6/4
L:1/4
Q:1/4=100
K:C
|:ef/2e/2dcA2|AB/2A/2GFED|ef/2e/2dcAz|AB/2A/2GFE2:|!
|:ED/2E/2AE/2A/2c3/2B/2|AcB3/2A/2^GE|ED/2E/2cA/2c/2e2|de/2d/2cBA2:|!
